svg/soulTopLeftFace.svg

<?xml version="1.0" encoding="UTF-8" standalone="no"?>
<!-- Created with Inkscape (http://www.inkscape.org/) -->

<svg
   width="32"
   height="32"
   viewBox="0 0 8.4666666 8.4666668"
   version="1.1"
   id="svg5"
   inkscape:version="1.2 (dc2aeda, 2022-05-15)"
   sodipodi:docname="soulTopLeftFace.svg"
   xmlns:inkscape="http://www.inkscape.org/namespaces/inkscape"
   xmlns:sodipodi="http://sodipodi.sourceforge.net/DTD/sodipodi-0.dtd"
   xmlns="http://www.w3.org/2000/svg"
   xmlns:svg="http://www.w3.org/2000/svg"
   xmlns:rdf="http://www.w3.org/1999/02/22-rdf-syntax-ns#"
   xmlns:cc="http://creativecommons.org/ns#">
  <sodipodi:namedview
     id="namedview7"
     pagecolor="#ffffff"
     bordercolor="#111111"
     borderopacity="1"
     inkscape:pageshadow="0"
     inkscape:pageopacity="0"
     inkscape:pagecheckerboard="1"
     inkscape:document-units="mm"
     showgrid="true"
     width="32mm"
     units="px"
     objecttolerance="10000"
     guidetolerance="10000"
     inkscape:snap-perpendicular="true"
     inkscape:snap-tangential="true"
     inkscape:zoom="34.90625"
     inkscape:cx="11.803044"
     inkscape:cy="16.200537"
     inkscape:window-width="2560"
     inkscape:window-height="1301"
     inkscape:window-x="0"
     inkscape:window-y="25"
     inkscape:window-maximized="0"
     inkscape:current-layer="layer1"
     inkscape:showpageshadow="0"
     inkscape:deskcolor="#d1d1d1">
    <inkscape:grid
       type="xygrid"
       id="grid9"
       units="px"
       empspacing="4" />
  </sodipodi:namedview>
  <defs
     id="defs2" />
  <g
     inkscape:label="Layer 1"
     inkscape:groupmode="layer"
     id="layer1">
    <path
       id="path22124"
       style="fill:#000000;stroke-width:0"
       d="M 2.38125 1.0583333 A 1.3229166 1.3229166 0 0 0 1.0583333 2.38125 A 1.3229166 1.3229166 0 0 0 2.38125 3.7041667 A 1.3229166 1.3229166 0 0 0 3.7041667 2.38125 A 1.3229166 1.3229166 0 0 0 2.38125 1.0583333 z M 1.8520833 1.5875 A 0.26458332 0.26458332 0 0 1 2.1166667 1.8520833 A 0.26458332 0.26458332 0 0 1 1.8520833 2.1166667 A 0.26458332 0.26458332 0 0 1 1.5875 1.8520833 A 0.26458332 0.26458332 0 0 1 1.8520833 1.5875 z M 2.9104167 1.5875 A 0.26458332 0.26458332 0 0 1 3.175 1.8520833 A 0.26458332 0.26458332 0 0 1 2.9104167 2.1166667 A 0.26458332 0.26458332 0 0 1 2.6458333 1.8520833 A 0.26458332 0.26458332 0 0 1 2.9104167 1.5875 z M 2.38125 2.38125 A 0.52916664 0.52916664 0 0 1 2.9104167 2.9104167 A 0.52916664 0.52916664 0 0 1 2.38125 3.4395833 A 0.52916664 0.52916664 0 0 1 1.8520833 2.9104167 A 0.52916664 0.52916664 0 0 1 2.38125 2.38125 z " />
  </g>
  <metadata
     id="metadata33">
    <rdf:RDF>
      <cc:Work
         rdf:about="">
        <cc:license
           rdf:resource="http://creativecommons.org/licenses/by-sa/4.0/" />
      </cc:Work>
      <cc:License
         rdf:about="http://creativecommons.org/licenses/by-sa/4.0/">
        <cc:permits
           rdf:resource="http://creativecommons.org/ns#Reproduction" />
        <cc:permits
           rdf:resource="http://creativecommons.org/ns#Distribution" />
        <cc:requires
           rdf:resource="http://creativecommons.org/ns#Notice" />
        <cc:requires
           rdf:resource="http://creativecommons.org/ns#Attribution" />
        <cc:permits
           rdf:resource="http://creativecommons.org/ns#DerivativeWorks" />
        <cc:requires
           rdf:resource="http://creativecommons.org/ns#ShareAlike" />
      </cc:License>
    </rdf:RDF>
  </metadata>
</svg>

<svg width="32" height="32" viewBox="0 0 8.467 8.467" xmlns="http://www.w3.org/2000/svg"><path style="fill:#000;stroke-width:0" d="M2.381 1.058a1.323 1.323 0 0 0-1.323 1.323 1.323 1.323 0 0 0 1.323 1.323 1.323 1.323 0 0 0 1.323-1.323 1.323 1.323 0 0 0-1.323-1.323zm-.529.53a.265.265 0 0 1 .265.264.265.265 0 0 1-.265.265.265.265 0 0 1-.265-.265.265.265 0 0 1 .265-.265zm1.058 0a.265.265 0 0 1 .265.264.265.265 0 0 1-.265.265.265.265 0 0 1-.264-.265.265.265 0 0 1 .264-.265zm-.529.793a.53.53 0 0 1 .53.53.53.53 0 0 1-.53.529.53.53 0 0 1-.529-.53.53.53 0 0 1 .53-.529z"/></svg>
